X: 1
T: Spancil Hill
R: waltz
Z: John Chambers <jc:trillian.mit.edu>
M: 3/4
L: 1/4
K: Edor
B \
| "Em"B2E | B2B | "D"A2F | D2E |    FAG | E2D | "Em"E3- | E2B |
| "Em"B2e | e2f |    e2d | B2c | "D"d2e | dcB |     A3- | A2B |
| "Em"B2e | e2f |    e2d | B2c | "D"d2e | dcB |     A3- | Adc |
| "Em"B2E | B2B | "D"A2F | D2E |    FAF | E2D | "Em"E3- | Ez |]
